symbolic/22x22/apps/cuphead.svg

<svg xmlns="http://www.w3.org/2000/svg" width="22" height="22" version="1">
 <circle style="opacity:0.2" cx="12" cy="11.5" r="10"/>
 <circle style="fill:#ffb310" cx="12" cy="11" r="10"/>
 <path style="opacity:0.2;fill:#ffffff" d="M 12,1 A 10,10 0 0 0 2,11 10,10 0 0 0 2.0107422,11.291016 10,10 0 0 1 12,1.5 10,10 0 0 1 21.989258,11.208985 10,10 0 0 0 22,11 10,10 0 0 0 12,1 Z"/>
 <path style="opacity:0.2" d="m 5.8735715,2.5402655 c -0.083699,-0.00331 -0.167523,-0.00135 -0.2509765,0.00586 l -4.7662737,0.407435 c 0,0 -0.9426723,1.0587745 -0.8498964,2.143641 0.09058,1.1248395 0.9820043,1.859519 0.9820043,1.859519 L 4.407751,6.664289 5.7329465,10.5305 9.516149,9.232649 7.685095,3.889875 C 7.417399,3.1094419 6.6979715,2.5734585 5.8735715,2.5402655 Z"/>
 <path style="fill:#ffffff" d="M 5.8735715,2.040039 C 5.7898725,2.036739 5.7060485,2.038699 5.622595,2.045899 L 0.8563213,2.4533341 c 0,0 -0.9426723,1.0587744 -0.8498964,2.1436409 0.09058,1.1248395 0.9820043,1.859519 0.9820043,1.859519 L 4.407751,6.1640625 5.7329465,10.030274 9.516149,8.732422 7.685095,3.3896484 C 7.417399,2.6092154 6.6979715,2.073232 5.8735715,2.040039 Z"/>
 <path style="fill:#df4418" d="M 4.301306,2.1591797 1.855017,2.368164 C 1.6077593,3.050669 1.3879702,3.7911025 1.3891966,4.292969 c 0.00141,0.57406 0.2869145,1.396527 0.5742188,2.080078 L 4.407751,6.1640625 4.9067745,7.6191405 H 5.189978 c 0,0 -0.128739,-0.224348 -0.299805,-0.5371095 C 5.383057,6.5747875 6.234453,5.757772 6.8159545,5.580078 7.2338065,5.452392 7.894921,5.533308 8.4585325,5.647461 L 7.860876,3.902344 C 7.2294305,3.859999 6.473664,3.8482325 6.035681,3.9873045 5.3805435,4.195317 4.460511,5.0357875 4.0815795,5.4003905 3.8640675,4.861149 3.6964952,4.327596 3.6997435,3.942383 3.7039993,3.4376723 3.9856335,2.7652177 4.301306,2.1591797 Z"/>
 <path style="opacity:0.2" d="M 12,6.5 C 8.1241672,6.5 4.8296865,7.4124899 3.5625,8.5253906 A 4,4 0 0 0 0,12.5 a 4,4 0 0 0 4,4 4,4 0 0 0 1.8398438,-0.453125 C 7.4507024,17.563197 9.613155,18.5 12,18.5 c 4.970562,0 9,-4.029437 9,-9 0,-2.5 -4.029438,-3 -9,-3 z m -8.8574219,4.544922 c 0.1742224,1.005242 0.5080996,1.953093 0.9863281,2.814453 A 1.5,1.5 0 0 1 3.5,14 1.5,1.5 0 0 1 2,12.5 1.5,1.5 0 0 1 3.1425781,11.044922 Z"/>
 <path style="fill:#e4e4e4" d="m 21,9 c 0,4.970563 -4.029438,9 -9,9 C 7.0294375,18 3,13.970563 3,9 3,7.5 7.0294375,6 12,6 c 4.970562,0 9,0.5 9,3 z"/>
 <path style="opacity:0.2" d="m 16.662386,6.767578 c -0.459664,0.7399895 -0.716804,1.7258685 -0.717773,2.751953 1.51e-4,2.198366 1.352527,3.980392 2.774137,3.980469 0.683025,-8e-4 1.33785,-0.421294 1.820312,-1.168945 C 20.834361,11.440115 21,10.490012 21,9.5 21,7.901724 19.149224,7.1229295 16.662386,6.767578 Z"/>
 <path style="fill:#ffffff" d="M 16.662386,6.267578 C 16.202722,7.0075675 15.945582,7.9934465 15.944613,9.019531 15.944764,11.217897 17.29714,12.999923 18.71875,13 19.401775,12.9992 20.0566,12.578706 20.539062,11.831055 20.834361,10.940115 21,9.990012 21,9 21,7.401724 19.149224,6.6229295 16.662386,6.267578 Z"/>
 <path style="fill:#e4e4e4" d="M 4,8 A 4,4 0 0 0 0,12 4,4 0 0 0 4,16 4,4 0 0 0 8,12 4,4 0 0 0 4,8 Z M 3.5,10.5 A 1.5,1.5 0 0 1 5,12 1.5,1.5 0 0 1 3.5,13.5 1.5,1.5 0 0 1 2,12 1.5,1.5 0 0 1 3.5,10.5 Z"/>
 <path style="fill:#3f3f3f" d="m 14.907818,15.682202 c -0.364001,1.199622 -2.481047,1.670126 -4.788786,1.033566 -2.307739,-0.63656 -3.9311315,-2.138789 -3.5682765,-3.338753 0.6101835,-2.017886 2.0172795,-0.0087 4.3250195,0.62782 2.307739,0.636559 4.618058,-0.253938 4.032043,1.677367 z"/>
 <path style="fill:#df4418" d="m 7.379883,13.820313 c -0.31852,0.01753 -0.596728,0.104206 -0.8271485,0.271484 0.283177,1.029097 1.700687,2.109388 3.5664065,2.624023 0.583213,0.160872 1.153862,0.24983 1.6875,0.275391 0.234553,-1.088931 -0.607082,-1.877121 -1.905274,-2.490235 0.06417,0.332471 0.124625,0.665513 0.198243,0.996094 L 9.094727,14.164063 C 8.4607275,13.931219 7.8728345,13.793171 7.379883,13.820313 Z"/>
 <path style="fill:#3f3f3f" d="m 17.584158,7.19802 a 1.5,2.5 0 0 0 -1.5,2.5 1.5,2.5 0 0 0 1.5,2.5 1.5,2.5 0 0 0 1.430664,-1.75293 L 17.838065,9.455833 18.91619,8.548606 A 1.5,2.5 0 0 0 17.584158,7.19802 Z"/>
 <path style="opacity:0.2" d="M 12,6.5 C 10.046191,6.5 8.2429985,6.7340195 6.767578,7.1064455 A 5.25,5.25 0 0 0 6.5,8.75 5.25,5.25 0 0 0 11.75,14 5.25,5.25 0 0 0 17,8.75 5.25,5.25 0 0 0 16.591797,6.732422 C 15.246261,6.5603575 13.679626,6.5 12,6.5 Z"/>
 <path style="fill:#ffffff" d="M 12,6 C 10.046191,6 8.2429985,6.2340195 6.767578,6.6064455 A 5.25,5.25 0 0 0 6.5,8.25 5.25,5.25 0 0 0 11.75,13.5 5.25,5.25 0 0 0 17,8.25 5.25,5.25 0 0 0 16.591797,6.232422 C 15.246261,6.0603575 13.679626,6 12,6 Z"/>
 <path style="fill:#3f3f3f" d="M 11.5,7 A 1.5,2.5 0 0 0 10,9.5 1.5,2.5 0 0 0 11.5,12 1.5,2.5 0 0 0 12.930664,10.247071 L 11.753906,9.257813 12.832031,8.350586 A 1.5,2.5 0 0 0 11.5,7 Z"/>
 <ellipse style="opacity:0.1" cx="16.75" cy="12.5" rx="1.25" ry="1"/>
 <ellipse style="fill:#df4418" cx="16.75" cy="12" rx="1.25" ry="1"/>
 <path style="opacity:0.2" d="m 7.359375,12.5 c -0.349495,0.0088 -0.6179115,0.246364 -0.808594,0.876953 -0.058885,0.194734 -0.060676,0.397853 -0.020505,0.603516 0.00712,-0.03444 0.01023,-0.06953 0.020505,-0.103516 0.6101835,-2.017885 2.017456,-0.0086 4.325196,0.62793 1.920541,0.529755 3.836611,0.0076 4.089844,0.928711 0.30423,-1.595849 -1.890935,-0.822172 -4.089844,-1.428711 C 9.289406,13.567247 8.128264,12.480546 7.359375,12.5 Z"/>
</svg>

<svg xmlns="http://www.w3.org/2000/svg" width="22" height="22" version="1"><circle style="opacity:.2" cx="12" cy="11.5" r="10"/><circle style="fill:#ffb310" cx="12" cy="11" r="10"/><path style="opacity:.2;fill:#fff" d="M12 1A10 10 0 0 0 2 11a10 10 0 0 0 .01.291A10 10 0 0 1 12 1.5a10 10 0 0 1 9.99 9.709A10 10 0 0 0 22 11 10 10 0 0 0 12 1z"/><path style="opacity:.2" d="M5.874 2.54a1.998 1.998 0 0 0-.251.006l-4.767.408s-.942 1.058-.85 2.143c.091 1.125.982 1.86.982 1.86l3.42-.293 1.325 3.867 3.783-1.298-1.83-5.343a2 2 0 0 0-1.812-1.35z"/><path style="fill:#fff" d="M5.874 2.04a2.002 2.002 0 0 0-.251.006l-4.767.407s-.942 1.06-.85 2.144c.091 1.125.982 1.86.982 1.86l3.42-.293 1.325 3.866 3.783-1.298-1.83-5.342a2 2 0 0 0-1.812-1.35z"/><path style="fill:#df4418" d="m4.301 2.16-2.446.208c-.247.683-.467 1.423-.466 1.925.002.574.287 1.396.574 2.08l2.445-.209.499 1.455h.283s-.129-.224-.3-.537c.493-.507 1.344-1.324 1.926-1.502.418-.128 1.079-.047 1.643.067L7.86 3.902c-.632-.042-1.387-.054-1.825.085C5.38 4.195 4.46 5.036 4.082 5.4c-.218-.539-.386-1.072-.382-1.458.004-.504.286-1.177.601-1.783z"/><path style="opacity:.2" d="M12 6.5c-3.876 0-7.17.912-8.438 2.025A4 4 0 0 0 0 12.5a4 4 0 0 0 4 4 4 4 0 0 0 1.84-.453A8.957 8.957 0 0 0 12 18.5a9 9 0 0 0 9-9c0-2.5-4.03-3-9-3zm-8.857 4.545a8.925 8.925 0 0 0 .986 2.814A1.5 1.5 0 0 1 3.5 14 1.5 1.5 0 0 1 2 12.5a1.5 1.5 0 0 1 1.143-1.455z"/><path style="fill:#e4e4e4" d="M21 9A9 9 0 0 1 3 9c0-1.5 4.03-3 9-3s9 .5 9 3z"/><path style="opacity:.2" d="M16.662 6.768c-.46.74-.716 1.725-.717 2.752 0 2.198 1.352 3.98 2.774 3.98.683 0 1.338-.421 1.82-1.169.295-.89.461-1.841.461-2.831 0-1.598-1.85-2.377-4.338-2.732z"/><path style="fill:#fff" d="M16.662 6.268c-.46.74-.716 1.725-.717 2.752 0 2.198 1.352 3.98 2.774 3.98.683 0 1.338-.421 1.82-1.169C20.834 10.941 21 9.99 21 9c0-1.598-1.85-2.377-4.338-2.732z"/><path style="fill:#e4e4e4" d="M4 8a4 4 0 0 0-4 4 4 4 0 0 0 4 4 4 4 0 0 0 4-4 4 4 0 0 0-4-4zm-.5 2.5A1.5 1.5 0 0 1 5 12a1.5 1.5 0 0 1-1.5 1.5A1.5 1.5 0 0 1 2 12a1.5 1.5 0 0 1 1.5-1.5z"/><path style="fill:#3f3f3f" d="M14.908 15.682c-.364 1.2-2.481 1.67-4.789 1.034-2.308-.637-3.931-2.139-3.568-3.339.61-2.018 2.017-.009 4.325.628 2.308.636 4.618-.254 4.032 1.677z"/><path style="fill:#df4418" d="M7.38 13.82a1.519 1.519 0 0 0-.827.272c.283 1.029 1.7 2.11 3.566 2.624.583.16 1.154.25 1.688.275.234-1.089-.607-1.877-1.906-2.49.065.332.125.665.199.996l-1.005-1.333c-.634-.233-1.222-.37-1.715-.344z"/><path style="fill:#3f3f3f" d="M17.584 7.198a1.5 2.5 0 0 0-1.5 2.5 1.5 2.5 0 0 0 1.5 2.5 1.5 2.5 0 0 0 1.43-1.753l-1.176-.99 1.078-.906a1.5 2.5 0 0 0-1.332-1.351z"/><path style="opacity:.2" d="M12 6.5c-1.954 0-3.757.234-5.232.606A5.25 5.25 0 0 0 6.5 8.75 5.25 5.25 0 0 0 11.75 14 5.25 5.25 0 0 0 17 8.75a5.25 5.25 0 0 0-.408-2.018C15.246 6.56 13.68 6.5 12 6.5z"/><path style="fill:#fff" d="M12 6c-1.954 0-3.757.234-5.232.606A5.25 5.25 0 0 0 6.5 8.25a5.25 5.25 0 0 0 5.25 5.25A5.25 5.25 0 0 0 17 8.25a5.25 5.25 0 0 0-.408-2.018C15.246 6.06 13.68 6 12 6z"/><path style="fill:#3f3f3f" d="M11.5 7A1.5 2.5 0 0 0 10 9.5a1.5 2.5 0 0 0 1.5 2.5 1.5 2.5 0 0 0 1.43-1.753l-1.176-.99 1.078-.906A1.5 2.5 0 0 0 11.5 7z"/><ellipse style="opacity:.1" cx="16.75" cy="12.5" rx="1.25" ry="1"/><ellipse style="fill:#df4418" cx="16.75" cy="12" rx="1.25" ry="1"/><path style="opacity:.2" d="M7.36 12.5c-.35.009-.619.246-.81.877-.058.195-.06.398-.02.603.007-.034.01-.07.02-.103.611-2.018 2.018-.009 4.326.628 1.92.53 3.837.007 4.09.929.304-1.596-1.891-.823-4.09-1.43-1.587-.437-2.748-1.523-3.517-1.504z"/></svg>
